X: 30188
T: Old Flail, The
R: jig
M: 6/8
K: Gmajor
|:DEG GGB|~d2g ~g2b|age gBe|dBG AGE|
DEG GAB|Bdg ~g2b|age gBe|1 dBG AGE:|2 dBG AAd||
|:e2a a^ga|e2a a^ga|d2g ged|ged AGE|
DEG GAB|Bdg gab|age gBe|1 dBG AGd:|2 dBG AGE||

